Hatter-kde/actions/24/milestone.svg

<svg xmlns="http://www.w3.org/2000/svg" viewBox="0 0 24 24">
  <defs id="defs3051">
    <style type="text/css" id="current-color-scheme">
      .ColorScheme-Text {
        color:#363636;
      }
      </style>
  </defs>
 <path style="fill:currentColor;fill-opacity:1;stroke:none" 
     d="M 4 4 L 4 5 L 4 19 L 4 20 L 5 20 L 20 20 L 20 19 L 20 4 L 5 4 L 4 4 z M 5 5 L 19 5 L 19 19 L 5 19 L 5 5 z M 12 7 L 10.453125 10.291016 L 7 10.818359 L 9.5 13.380859 L 8.9101562 17 L 12 15.291016 L 15.089844 17 L 14.5 13.380859 L 17 10.818359 L 13.546875 10.291016 L 12 7 z "
     class="ColorScheme-Text"
     />
</svg>

<?xml version="1.0" encoding="UTF-8"?>
<svg viewBox="0 0 24 24" xmlns="http://www.w3.org/2000/svg">
 <defs id="defs3051">
  <style id="current-color-scheme" type="text/css">.ColorScheme-Text {
        color:#363636;
      }</style>
 </defs>
 <path class="ColorScheme-Text" d="m4 4v1 14 1h1 15v-1-15h-15-1zm1 1h14v14h-14v-14zm7 2-1.5469 3.291-3.4531 0.52734 2.5 2.5625-0.58984 3.6191 3.0898-1.709 3.0898 1.709-0.58984-3.6191 2.5-2.5625-3.4531-0.52734-1.5469-3.291z" fill="currentColor"/>
</svg>
